X: 39822
T: Thief Lane
R: jig
M: 6/8
K: Eminor
|:BEF GFE|BEF GFE|c2c BAG|FAG FED|
BEF GFE|BEF GFE|c2c BAG|1 FED E2B:|2 FED E2e||
|:efg fed|BdB G2B|cde dcB|BdB G2e|
efg fed|BdB G2B|c2c BAG|1 FED E2e:|2 FED E2B||

